apps/mobile/assets/icons/phosphor/shuffle.svg

<svg
  height="32"
  viewBox="0 0 256 256"
  width="32"
  xmlns="http://www.w3.org/2000/svg"
>
  <path
    d="m237.66 178.34a8 8 0 0 1 0 11.32l-24 24a8 8 0 0 1 -11.32-11.32l10.35-10.34h-11.75a72.12 72.12 0 0 1 -58.59-30.15l-41.72-58.4a56.1 56.1 0 0 0 -45.57-23.45h-23.06a8 8 0 0 1 0-16h23.06a72.12 72.12 0 0 1 58.59 30.15l41.72 58.4a56.1 56.1 0 0 0 45.57 23.45h11.75l-10.35-10.34a8 8 0 0 1 11.32-11.32zm-94.66-71.34a8 8 0 0 0 11.16-1.86l1.2-1.67a56.1 56.1 0 0 1 45.58-23.47h11.75l-10.35 10.34a8 8 0 0 0 11.32 11.32l24-24a8 8 0 0 0 0-11.32l-24-24a8 8 0 0 0 -11.32 11.32l10.35 10.34h-11.75a72.12 72.12 0 0 0 -58.59 30.15l-1.2 1.67a8 8 0 0 0 1.85 11.18zm-30 42a8 8 0 0 0 -11.16 1.86l-1.2 1.67a56.1 56.1 0 0 1 -45.58 23.47h-23.06a8 8 0 0 0 0 16h23.06a72.12 72.12 0 0 0 58.59-30.15l1.2-1.67a8 8 0 0 0 -1.85-11.18z"
  />
</svg>

<svg xmlns="http://www.w3.org/2000/svg" width="32" height="32" fill="#000000" viewBox="0 0 256 256"><path d="M237.66,178.34a8,8,0,0,1,0,11.32l-24,24a8,8,0,0,1-11.32-11.32L212.69,192H200.94a72.12,72.12,0,0,1-58.59-30.15l-41.72-58.4A56.1,56.1,0,0,0,55.06,80H32a8,8,0,0,1,0-16H55.06a72.12,72.12,0,0,1,58.59,30.15l41.72,58.4A56.1,56.1,0,0,0,200.94,176h11.75l-10.35-10.34a8,8,0,0,1,11.32-11.32ZM143,107a8,8,0,0,0,11.16-1.86l1.2-1.67A56.1,56.1,0,0,1,200.94,80h11.75L202.34,90.34a8,8,0,0,0,11.32,11.32l24-24a8,8,0,0,0,0-11.32l-24-24a8,8,0,0,0-11.32,11.32L212.69,64H200.94a72.12,72.12,0,0,0-58.59,30.15l-1.2,1.67A8,8,0,0,0,143,107Zm-30,42a8,8,0,0,0-11.16,1.86l-1.2,1.67A56.1,56.1,0,0,1,55.06,176H32a8,8,0,0,0,0,16H55.06a72.12,72.12,0,0,0,58.59-30.15l1.2-1.67A8,8,0,0,0,113,149Z"></path></svg>
